!!!!SEGMENT: pl-lzu--m-15111--001-002_noskowski-zygmunt--spiewnik-dla-dzieci-op-34-2-slizgawka.krn
!!!cenid: 18xx:4699
!!!COM: Noskowski, Zygmunt
!!!COM-rismID: pe106604
!!!CDT: 1846/05/02-1909/07/23
!!!CNT: Polish
!!!GTL: Śpiewnik dla dzieci, op. 34
!!!OTL: 2. Ślizgawka
!!!OMV: 002
!!!PDT: 1890
!!!AGN: Secular; Song; Children
!!!YEC: Copyright 2022 Narodowy Instytut Fryderyka Chopina (https://polishscores.org)
!!!YEM: License CC-BY-4.0 (https://creativecommons.org/licenses/by/4.0)
!!!SMS-siglum: PL-LŹu
!!!SMS-shelfmark: M 15111
!!!SMS-variant:
!!!SMS-altvar:
!!!SMS-shelfwork: 001-002 G
!!!NIFC-rismSourceID: 1001234040
!!!NIFC-rismChildID: 1001234040
!!!NIFC-islandoraID: pl-lzu:5455
!!!URL-pdf-islandora: https://repozytorium.nifc.pl/islandora/object/pl-lzu%3A5455/datastream/PDF/view
!!!URL-scan: https://polish.musicsources.pl/pl/lokalizacje/galeria/druki-muzyczne/23228/9 @EN{Scan on Polish Music Sources Website} @PL{Skany w portalu Dziedzictwo Muzyki Polskiej w otwartym dostępie}
!!!IIIF:
!!!ONB-nifc:
!!!AIN: 1 piano 1 vox
!!!key: A
!!!OMD: Allegretto vivo.
**kern	**kern	**dynam	**kern	**text	**text	**text	**dynam
*part2	*part2	*part2	*part1	*part1	*part1	*part1	*part1
*staff3	*staff2	*staf2/3	*staff1	*staff1	*staff1	*staff1	*staf1
*I"[Piano]	*I"[Piano]	*	*I"[Voice]	*	*	*	*
*I'pf	*I'pf	*	*I'V	*	*	*	*
*Ipiano	*Ipiano	*	*Ivox	*	*	*	*
*ICklav	*ICklav	*	*ICvox	*	*	*	*
*IGacmp	*IGacmp	*	*IGsolo	*	*	*	*
*>[A,A,A,B]	*>[A,A,A,B]	*>[A,A,A,B]	*>[A,A,A,B]	*>[A,A,A,B]	*>[A,A,A,B]	*>[A,A,A,B]	*>[A,A,A,B]
*>A	*>A	*>A	*>A	*>A	*>A	*>A	*>A
*clefF4	*clefG2	*	*clefG2	*	*	*	*
*k[f#c#g#]	*k[f#c#g#]	*	*k[f#c#g#]	*	*	*	*
*A:	*A:	*	*A:	*	*	*	*
*M6/8	*M6/8	*	*M6/8	*	*	*	*
=1	=1	=1	=1	=1	=1	=1	=1
!	!LO:TX:a:t=[segno]	!	!	!	!	!	!
!	!LO:TX:a:i:t=Dosyć prędko.	!	!	!	!	!	!
8c#L 8A\	(16d#X/LL	p	2.r	.	.	.	.
.	16e/	.	.	.	.	.	.
8c# 8A\	16f#/	.	.	.	.	.	.
.	16g#/J)	.	.	.	.	.	.
8eJ 8A\	8a'/J	.	.	.	.	.	.
8eL 8d 8An\	(16a#X\LL	<	.	.	.	.	.
.	16b\	.	.	.	.	.	.
8e 8d 8A\	16cc#\	.	.	.	.	.	.
.	16dd\J)	.	.	.	.	.	.
8eJ 8d 8A\	8ee'\J	[[	.	.	.	.	.
=2	=2	=2	=2	=2	=2	=2	=2
8eL 8c# 8A\	(16dd#X\LL	.	2.r	.	.	.	.
.	16ee\	.	.	.	.	.	.
8e 8c# 8A\	16ff#\	.	.	.	.	.	.
.	16gg#\J)	.	.	.	.	.	.
8eJ 8c# 8A\	8aa'\J	.	.	.	.	.	.
8eL 8B 8A\	(16gg#\LL	f	.	.	.	.	.
.	16ff#\	.	.	.	.	.	.
8e 8B 8A\	16ee\	.	.	.	.	.	.
.	16dd#\J)	.	.	.	.	.	.
8eJ 8B 8A\	8ddn'\J	.	.	.	.	.	.
=3	=3	=3	=3	=3	=3	=3	=3
8eL 8c# 8A\	(16cc#\LL	.	2.r	.	.	.	.
.	16dd\	.	.	.	.	.	.
8e 8c# 8A\	16dd#X\	.	.	.	.	.	.
.	16ee\J)	.	.	.	.	.	.
8eJ 8c# 8A\	8ff#'\J	>	.	.	.	.	.
8eL 8d 8A\	(16ee\LL	.	.	.	.	.	.
.	16dd#\	.	.	.	.	.	.
8e 8d 8A\	16ddn\	.	.	.	.	.	.
.	16cc#\J)	.	.	.	.	.	.
8eJ 8d 8A\	8b'\J	]	.	.	.	.	.
!!LO:LB:g=original
=4	=4	=4	=4	=4	=4	=4	=4
8eL 8c# 8A\	(16a/LL	p	2.r	.	.	.	.
.	16b/	.	.	.	.	.	.
8c# 8A\	16a/	.	.	.	.	.	.
.	16f#/	.	.	.	.	.	.
8c#J 8A\	16e/	.	.	.	.	.	.
.	16f#/JJ	.	.	.	.	.	.
8dL 8G#\	16e/LL	.	.	.	.	.	.
.	16f#/	.	.	.	.	.	.
8d 8G#\	16e/	.	.	.	.	.	.
.	16f#/	.	.	.	.	.	.
8dJ 8G#\	16e/	.	.	.	.	.	.
.	16f#/JJ)	.	.	.	.	.	.
=5	=5	=5	=5	=5	=5	=5	=5
*	*	*	*	*v:1	*v:2	*v:3	*
!	!	!	!	!	!	!	!LO:DY:a
8c#L 8A\	(16e/LL	.	(16e/LL	Ró-	Gu-	Jak	p
.	16f#/JJ	.	16f#/JJ	.	.	.	.
8c# 8A\	4e/)	.	4e/)	-wno,	-za	po-	.
8c#J 8A\	.	.	.	.	.	.	.
8dL 8A\	(16b\LL	.	(16b\LL	ró-	na-	-wie-	.
.	16cc#\JJ	.	16cc#\JJ	.	.	.	.
8d 8A\	4b\)	.	4b\)	-wno,	-bić	-dzą,	.
8dJ 8A\	.	.	.	.	.	.	.
=6	=6	=6	=6	=6	=6	=6	=6
8c#L 8A\	4a/	.	4a/	jak	strach	tak	.
8c# 8A\	.	.	.	.	.	.	.
8eJ 8A\	8cc#\	.	8cc#\	po	nie	po-	.
8c#L 8A\	4ee\	.	4ee\	sto-	du-	-wie-	.
8c# 8A\	.	.	.	.	.	.	.
8eJ 8A\	8cc#\	.	8cc#,\	-le,	-ży	-dzą,	.
!!LO:LB:g=original
=7	=7	=7	=7	=7	=7	=7	=7
*	*	*	*	*v:1	*v:2	*v:3	*
8G#\L	4b/	.	4b/	Na	Nic	Pój-	.
8e 8d\	.	.	.	.	.	.	.
8F#\J	8a/	.	8a/	ły-	nie	-dzie	.
4.E\	8g#/L	.	(8g#/L	-żew-	bę-	na-	.
.	8f# 8d/	.	8f#/J)	.	.	.	.
.	8eJ 8d/	.	8e/	-kach	-dzie,	-zwa	.
=8	=8	=8	=8	=8	=8	=8	=8
2.A\	8cc#/L	.	2.cc#\	w dal...	nic.	w świat,	.
.	8e 8c#/	.	.	.	.	.	.
.	8f#J 8c#/	.	.	.	.	.	.
.	8eL 8c#/	.	.	.	.	.	.
.	8f# 8c#/	.	.	.	.	.	.
.	8eJ 8c#/	.	.	.	.	.	.
=9	=9	=9	=9	=9	=9	=9	=9
8G#\L	(16b\LL	.	(16b\LL	Choć	A	Niech	.
.	16cc#\JJ	.	16cc#\JJ	.	.	.	.
8e#X 8c#\	4b\)	.	4b\)	wy-	gdy	za	.
8e#J 8c#\	.	.	.	.	.	.	.
8F#\L	(16a/LL	.	(16a/LL	-sko-	chło-	pie-	.
.	16b/JJ	.	16b/JJ	.	.	.	.
8f# 8c#\	4a/)	.	4a/)	-czy	-piec	-cem	.
8f#J 8c#\	.	.	.	.	.	.	.
=10	=10	=10	=10	=10	=10	=10	=10
4.E#X\	8g#/L	.	4g#/	guz	za-	tchó-	.
.	8g# 8c#/	.	.	.	.	.	.
.	8cc#J 8g# 8c#/	.	8cc#\	na	-wsze	-rze	.
4F#\	8aL 8c#/	.	8a/	czo-	tchó-	sie-	.
.	8g# 8c# 8B/	.	8g#,/	-le,	-rzy,	-dzą,	.
8D\	8f#J 8d 8A/	.	8f#/	Nie	Po-	A	.
!!LO:PB:g=original
=11	=11	=11	=11	=11	=11	=11	=11
*	*	*	*	*v:1	*v:2	*v:3	*
4.C#/	8enL 8A/	.	(>4e/	bę-	-wie-	ja	.
.	8e 8A/	.	.	.	.	.	.
.	8aJ 8e 8A/	.	8a/)	.	.	.	.
4BB/	8f#L 8d 8A/	.	4f#/	-dzie	-dzą,	je-	.
.	8f# 8d 8A/	.	.	.	.	.	.
8EE/	8g#J 8d 8B/	.	8g#/	mi	że	-stem	.
=12	=12	=12	=12	=12	=12	=12	=12
2.AA/	8aL 8c# 8A/	.	[>4.a/	żal!	fryc!	chwat!	.
.	8a 8c# 8A/	.	.	.	.	.	.
.	8aJ 8c# 8A/	.	.	.	.	.	.
.	8aL 8c# 8A/	.	4a/]	.	.	.	.
.	8a 8c# 8A/	.	.	.	.	.	.
.	8aJ 8c# 8A/	.	8r	.	.	.	.
!	!LO:TX:a:rj:t=[segno]	!	!	!	!	!	!
=13:|!	=13:|!	=13:|!	=13:|!	=13:|!	=13:|!	=13:|!	=13:|!
*>B	*>B	*>B	*>B	*>B	*>B	*>B	*>B
!	!LO:TX:a:i:t=D. S.	!	!	!	!	!	!
4AA/	4a 4c# 4A/	.	2.r	.	.	.	.
8r	8r	.	.	.	.	.	.
4D\	4f# 4d 4A/	.	.	.	.	.	.
8r	8r	.	.	.	.	.	.
=14	=14	=14	=14	=14	=14	=14	=14
[<4.E [<4.AA\	[>4.a [>4.c# [<4.A/	.	2.r	.	.	.	.
4E] 4AA\]	4a] 4c#] 4A/]	.	.	.	.	.	.
8r	8r	.	.	.	.	.	.
==	==	==	==	==	==	==	==
*-	*-	*-	*-	*-	*-	*-	*-
!!!system-decoration: p1{p2}
!!!RDF**kern: > = above
!!!RDF**kern: < = below
!!!ENC: Andrzej Gręziak
!!!END: 2025-03-03
!!!ENC: Marta Lawrence
!!!END: 2025-03-18
